;FLAVOR:Marlin
;TIME:553
;Filament used: 0.19201m
;Layer height: 0.1
;MINX:86.306
;MINY:90.436
;MINZ:0.3
;MAXX:113.694
;MAXY:110.913
;MAXZ:8
;Generated with Cura_SteamEngine 4.13.1
M140 S60
M105
M190 S60
M104 S200
M105
M109 S200
M82 ;absolute extrusion mode
G21 ;metric values
 G90 ;absolute positioning
 M82 ;set extruder to absolute mode
 M107 ;start with the fan off
 G28 X0 Y0 ;move X/Y to min endstops
 G28 Z0 ;move Z to min endstops
 G1 Z15.0 F120 ;move the platform down 15mm
 G92 E0 ;zero the extruded length
 G1 F200 E6 ;extrude 6 mm of feed stock
 G92 E0 ;zero the extruded length again
 G1 F120 
 ;Put printing message on LCD screen
 M117 Printing...
G92 E0
G92 E0
G1 F1500 E-6.5
;LAYER_COUNT:78
;LAYER:0
M107
G0 F3600 X88.729 Y92.643 Z0.3
;TYPE:SKIRT
G1 F1500 E0
G1 F1800 X89.328 Y92.128 E0.03941
G1 X89.976 Y91.677 E0.0788
G1 X90.667 Y91.293 E0.11824
G1 X91.392 Y90.981 E0.15762
G1 X92.46 Y90.67 E0.21311
G1 X92.724 Y90.613 E0.22659
G1 X93.503 Y90.485 E0.26597
G1 X94.369 Y90.437 E0.30924
G1 X105.629 Y90.436 E0.87101
G1 X106.418 Y90.476 E0.91042
G1 X107.304 Y90.618 E0.95519
G1 X107.568 Y90.676 E0.96867
G1 X108.329 Y90.884 E1.00803
G1 X109.066 Y91.168 E1.04744
G1 X109.77 Y91.525 E1.08682
G1 X110.435 Y91.952 E1.12624
G1 X111.053 Y92.444 E1.16565
G1 X111.618 Y92.995 E1.20503
G1 X112.124 Y93.601 E1.24441
G1 X112.567 Y94.255 E1.28382
G1 X112.941 Y94.951 E1.32324
G1 X113.243 Y95.68 E1.36261
G1 X113.47 Y96.437 E1.40204
G1 X113.619 Y97.212 E1.44141
G1 X113.694 Y98.294 E1.49552
G1 X113.694 Y100.706 E1.61586
G1 X113.654 Y101.495 E1.65527
G1 X113.535 Y102.275 E1.69464
G1 X113.337 Y103.04 E1.73406
G1 X113.063 Y103.78 E1.77343
G1 X112.715 Y104.489 E1.81283
G1 X112.297 Y105.16 E1.85227
G1 X111.814 Y105.784 E1.89164
G1 X111.271 Y106.357 E1.93102
G1 X110.672 Y106.872 E1.97043
G1 X110.024 Y107.323 E2.00982
G1 X109.333 Y107.707 E2.04926
G1 X109.091 Y107.811 E2.0624
G1 X108.882 Y108.081 E2.07944
G1 X108.338 Y108.653 E2.11882
G1 X107.902 Y109.041 E2.14794
G1 X107.276 Y109.523 E2.18736
G1 X106.605 Y109.939 E2.22674
G1 X105.896 Y110.286 E2.26612
G1 X105.155 Y110.558 E2.30551
G1 X104.39 Y110.755 E2.34492
G1 X103.609 Y110.873 E2.38432
G1 X102.835 Y110.912 E2.42299
G1 X98.169 Y110.913 E2.65577
G1 X97.38 Y110.873 E2.69519
G1 X96.599 Y110.754 E2.7346
G1 X95.835 Y110.556 E2.77398
G1 X95.094 Y110.282 E2.81339
G1 X94.385 Y109.935 E2.85277
G1 X93.715 Y109.517 E2.89217
G1 X93.072 Y109.019 E2.93275
G1 X92.941 Y108.906 E2.94138
G1 X92.37 Y108.361 E2.98076
G1 X92.309 Y108.289 E2.98547
G1 X91.697 Y108.125 E3.01708
G1 X90.96 Y107.843 E3.05645
G1 X90.254 Y107.489 E3.09585
G1 X89.588 Y107.064 E3.13526
G1 X88.968 Y106.575 E3.17466
G1 X88.401 Y106.025 E3.21407
G1 X87.893 Y105.421 E3.25344
G1 X87.448 Y104.769 E3.29283
G1 X87.071 Y104.075 E3.33223
G1 X86.766 Y103.346 E3.37165
G1 X86.537 Y102.591 E3.41102
G1 X86.385 Y101.816 E3.45042
G1 X86.306 Y100.706 E3.50594
G1 X86.306 Y98.294 E3.62627
G1 X86.346 Y97.505 E3.66568
G1 X86.465 Y96.725 E3.70505
G1 X86.663 Y95.96 E3.74447
G1 X86.937 Y95.22 E3.78384
G1 X87.285 Y94.511 E3.82324
G1 X87.703 Y93.84 E3.86268
G1 X88.186 Y93.216 E3.90205
G1 X88.729 Y92.643 E3.94144
G0 F3600 X89.122 Y92.824
G1 F1800 X89.717 Y92.336 E3.97983
G1 X90.359 Y91.913 E4.01819
G1 X91.042 Y91.558 E4.05659
G1 X91.757 Y91.277 E4.09492
G1 X92.544 Y91.061 E4.13563
G1 X92.808 Y91.004 E4.14911
G1 X93.568 Y90.881 E4.18752
G1 X94.369 Y90.837 E4.22754
G1 X105.629 Y90.836 E4.7893
G1 X106.397 Y90.876 E4.82767
G1 X107.218 Y91.008 E4.86916
G1 X107.482 Y91.066 E4.88264
G1 X108.224 Y91.27 E4.92103
G1 X108.94 Y91.55 E4.95939
G1 X109.624 Y91.903 E4.99779
G1 X110.267 Y92.324 E5.03613
G1 X110.863 Y92.81 E5.0745
G1 X111.405 Y93.356 E5.11288
G1 X111.888 Y93.955 E5.15127
G1 X112.306 Y94.6 E5.18962
G1 X112.655 Y95.286 E5.22802
G1 X112.931 Y96.004 E5.26639
G1 X113.13 Y96.746 E5.30472
G1 X113.252 Y97.506 E5.34312
G1 X113.294 Y98.294 E5.38249
G1 X113.294 Y100.706 E5.50283
G1 X113.254 Y101.474 E5.54119
G1 X113.135 Y102.234 E5.57957
G1 X112.937 Y102.977 E5.61794
G1 X112.663 Y103.696 E5.65632
G1 X112.316 Y104.382 E5.69468
G1 X111.9 Y105.029 E5.73305
G1 X111.419 Y105.629 E5.77142
G1 X110.878 Y106.176 E5.8098
G1 X110.283 Y106.664 E5.84819
G1 X109.641 Y107.087 E5.88655
G1 X108.958 Y107.442 E5.92495
G1 X108.836 Y107.49 E5.93149
G1 X108.486 Y107.926 E5.95939
G1 X107.773 Y108.625 E6.0092
G1 X107.642 Y108.737 E6.0178
G1 X107.032 Y109.205 E6.05616
G1 X106.377 Y109.608 E6.09453
G1 X105.683 Y109.941 E6.13293
G1 X104.959 Y110.2 E6.17129
G1 X104.212 Y110.382 E6.20965
G1 X103.45 Y110.486 E6.24802
G1 X102.835 Y110.512 E6.27873
G1 X98.169 Y110.513 E6.51152
G1 X97.4 Y110.473 E6.54993
G1 X96.641 Y110.354 E6.58826
G1 X95.897 Y110.156 E6.62667
G1 X95.178 Y109.883 E6.66504
G1 X94.492 Y109.536 E6.7034
G1 X93.845 Y109.12 E6.74177
G1 X93.334 Y108.716 E6.77427
G1 X93.203 Y108.603 E6.7829
G1 X92.647 Y108.071 E6.82129
G1 X92.532 Y107.936 E6.83014
G1 X91.802 Y107.738 E6.86788
G1 X91.084 Y107.461 E6.90627
G1 X90.4 Y107.111 E6.9446
G1 X89.755 Y106.692 E6.98298
G1 X89.157 Y106.208 E7.02136
G1 X88.613 Y105.664 E7.05974
G1 X88.128 Y105.067 E7.09812
G1 X87.707 Y104.423 E7.1365
G1 X87.356 Y103.739 E7.17486
G1 X87.078 Y103.022 E7.21322
G1 X86.875 Y102.28 E7.2516
G1 X86.751 Y101.521 E7.28997
G1 X86.706 Y100.706 E7.33069
G1 X86.706 Y98.294 E7.45103
G1 X86.746 Y97.526 E7.4894
G1 X86.865 Y96.766 E7.52777
G1 X87.063 Y96.023 E7.56614
G1 X87.337 Y95.304 E7.60452
G1 X87.684 Y94.618 E7.64288
G1 X88.1 Y93.971 E7.68125
G1 X88.581 Y93.371 E7.71962
G1 X89.122 Y92.824 E7.758
G0 F3600 X89.514 Y93.01
G1 F1800 X90.104 Y92.551 E7.79529
G1 X90.74 Y92.156 E7.83265
G1 X91.414 Y91.832 E7.86996
G1 X92.119 Y91.582 E7.90727
G1 X92.629 Y91.452 E7.93353
G1 X92.893 Y91.395 E7.94701
G1 X93.631 Y91.276 E7.9843
G1 X94.369 Y91.237 E8.02117
G1 X105.629 Y91.236 E8.58294
G1 X106.376 Y91.276 E8.62026
G1 X107.132 Y91.399 E8.65847
G1 X107.396 Y91.457 E8.67195
G1 X108.117 Y91.656 E8.70927
G1 X108.813 Y91.932 E8.74662
G1 X109.475 Y92.279 E8.78391
G1 X110.096 Y92.696 E8.82123
G1 X110.67 Y93.176 E8.85856
G1 X111.189 Y93.715 E8.89589
G1 X111.647 Y94.306 E8.9332
G1 X112.04 Y94.943 E8.97054
G1 X112.362 Y95.618 E9.00785
G1 X112.611 Y96.323 E9.04515
G1 X112.783 Y97.051 E9.08247
G1 X112.876 Y97.794 E9.11983
G1 X112.894 Y98.294 E9.14479
G1 X112.894 Y100.706 E9.26513
G1 X112.854 Y101.453 E9.30245
G1 X112.735 Y102.191 E9.33974
G1 X112.537 Y102.913 E9.37709
G1 X112.264 Y103.609 E9.41439
G1 X111.917 Y104.272 E9.45172
G1 X111.502 Y104.895 E9.48907
G1 X111.023 Y105.469 E9.52637
G1 X110.486 Y105.99 E9.5637
G1 X109.896 Y106.449 E9.60099
G1 X109.26 Y106.844 E9.63834
G1 X108.587 Y107.168 E9.67561
G1 X108.571 Y107.191 E9.67701
G1 X108.091 Y107.766 E9.71437
G1 X107.513 Y108.321 E9.75435
G1 X107.382 Y108.433 E9.76295
G1 X106.788 Y108.888 E9.80028
G1 X106.149 Y109.277 E9.8376
G1 X105.472 Y109.595 E9.87492
G1 X104.765 Y109.84 E9.91225
G1 X104.036 Y110.008 E9.94957
G1 X103.294 Y110.097 E9.98686
G1 X102.835 Y110.112 E10.00977
G1 X98.169 Y110.113 E10.24256
G1 X97.421 Y110.073 E10.27993
G1 X96.683 Y109.954 E10.31722
G1 X95.961 Y109.756 E10.35457
G1 X95.265 Y109.483 E10.39187
G1 X94.602 Y109.137 E10.42918
G1 X93.979 Y108.722 E10.46653
G1 X93.464 Y108.3 E10.49975
G1 X92.924 Y107.782 E10.53708
G1 X92.749 Y107.574 E10.55064
G1 X92.629 Y107.548 E10.55676
G1 X91.907 Y107.352 E10.59409
G1 X91.21 Y107.079 E10.63143
G1 X90.547 Y106.734 E10.66872
G1 X89.924 Y106.319 E10.70607
G1 X89.349 Y105.841 E10.74337
G1 X88.828 Y105.304 E10.7807
G1 X88.367 Y104.715 E10.81802
G1 X87.972 Y104.079 E10.85537
G1 X87.647 Y103.405 E10.8927
G1 X87.396 Y102.701 E10.92999
G1 X87.222 Y101.973 E10.96733
G1 X87.126 Y101.232 E11.00461
G1 X87.106 Y100.706 E11.03087
G1 X87.106 Y98.294 E11.15121
G1 X87.146 Y97.547 E11.18853
G1 X87.265 Y96.809 E11.22582
G1 X87.463 Y96.087 E11.26317
G1 X87.736 Y95.391 E11.30047
G1 X88.083 Y94.728 E11.3378
G1 X88.498 Y94.105 E11.37515
G1 X88.977 Y93.531 E11.41245
G1 X89.514 Y93.01 E11.44978
G0 F3600 X89.371 Y93.696
G1 F1800 X89.905 Y93.203 E11.48604
G1 X90.49 Y92.773 E11.52226
G1 X91.119 Y92.409 E11.55852
G1 X91.784 Y92.116 E11.59477
G1 X92.713 Y91.843 E11.64308
G1 X92.977 Y91.786 E11.65655
G1 X93.694 Y91.672 E11.69277
G1 X94.369 Y91.637 E11.72649
G1 X105.629 Y91.636 E12.28826
G1 X106.355 Y91.676 E12.32453
G1 X107.046 Y91.79 E12.35947
G1 X107.31 Y91.848 E12.37296
G1 X108.01 Y92.042 E12.4092
G1 X108.684 Y92.313 E12.44544
G1 X109.325 Y92.656 E12.48171
G1 X109.923 Y93.067 E12.51791
G1 X110.473 Y93.541 E12.55413
G1 X110.968 Y94.073 E12.59039
G1 X111.401 Y94.656 E12.62662
G1 X111.767 Y95.283 E12.66284
G1 X112.063 Y95.947 E12.69911
G1 X112.283 Y96.639 E12.73534
G1 X112.426 Y97.351 E12.77157
G1 X112.494 Y98.294 E12.81874
G1 X112.494 Y100.706 E12.93907
G1 X112.454 Y101.431 E12.9753
G1 X112.335 Y102.148 E13.01156
G1 X112.137 Y102.847 E13.0478
G1 X111.864 Y103.52 E13.08404
G1 X111.519 Y104.159 E13.12027
G1 X111.105 Y104.756 E13.15651
G1 X110.629 Y105.304 E13.19272
G1 X110.095 Y105.797 E13.22898
G1 X109.51 Y106.227 E13.26521
G1 X108.881 Y106.591 E13.30146
G1 X108.322 Y106.837 E13.33193
G1 X108.173 Y107.052 E13.34498
G1 X107.697 Y107.6 E13.3812
G1 X107.253 Y108.016 E13.41155
G1 X107.122 Y108.128 E13.42015
G1 X106.545 Y108.569 E13.45638
G1 X105.923 Y108.944 E13.49262
G1 X105.263 Y109.248 E13.52887
G1 X104.574 Y109.478 E13.56511
G1 X103.864 Y109.631 E13.60134
G1 X102.834 Y109.712 E13.65289
G1 X98.168 Y109.713 E13.88568
G1 X97.443 Y109.673 E13.9219
G1 X96.727 Y109.554 E13.95811
G1 X96.028 Y109.357 E13.99434
G1 X95.354 Y109.084 E14.03062
G1 X94.715 Y108.738 E14.06688
G1 X93.856 Y108.111 E14.11994
G1 X93.725 Y107.998 E14.12857
G1 X93.202 Y107.494 E14.1648
G1 X92.967 Y107.212 E14.18312
G1 X92.713 Y107.157 E14.19608
G1 X92.013 Y106.965 E14.2323
G1 X91.337 Y106.697 E14.26858
G1 X90.696 Y106.357 E14.30477
G1 X90.096 Y105.948 E14.341
G1 X89.544 Y105.475 E14.37727
G1 X89.047 Y104.945 E14.41352
G1 X88.612 Y104.364 E14.44973
G1 X88.244 Y103.738 E14.48596
G1 X87.946 Y103.075 E14.52222
G1 X87.723 Y102.384 E14.55845
G1 X87.577 Y101.672 E14.59471
G1 X87.506 Y100.706 E14.64303
G1 X87.506 Y98.294 E14.76337
G1 X87.546 Y97.569 E14.79959
G1 X87.665 Y96.852 E14.83585
G1 X87.863 Y96.153 E14.8721
G1 X88.136 Y95.48 E14.90833
G1 X88.481 Y94.841 E14.94456
G1 X88.895 Y94.244 E14.98081
G1 X89.371 Y93.696 E15.01702
G0 F3600 X89.765 Y93.867
G1 F1800 X90.295 Y93.403 E15.05216
G1 X90.874 Y93.003 E15.08727
G1 X91.495 Y92.671 E15.1224
G1 X92.149 Y92.411 E15.15752
G1 X92.798 Y92.234 E15.19108
G1 X93.062 Y92.177 E15.20455
G1 X93.757 Y92.067 E15.23966
G1 X94.369 Y92.037 E15.27023
G1 X105.629 Y92.036 E15.83199
G1 X106.332 Y92.076 E15.86712
G1 X106.96 Y92.18 E15.89888
G1 X107.224 Y92.238 E15.91236
G1 X107.902 Y92.428 E15.94749
G1 X108.554 Y92.694 E15.98262
G1 X109.172 Y93.031 E16.01774
G1 X109.747 Y93.437 E16.05286
G1 X110.273 Y93.905 E16.08798
G1 X110.743 Y94.43 E16.12314
G1 X111.149 Y95.004 E16.15821
G1 X111.488 Y95.621 E16.19334
G1 X111.755 Y96.273 E16.22849
G1 X111.947 Y96.95 E16.2636
G1 X112.06 Y97.645 E16.29872
G1 X112.094 Y98.294 E16.33115
G1 X112.094 Y100.706 E16.45148
G1 X112.054 Y101.409 E16.48661
G1 X111.935 Y102.103 E16.52174
G1 X111.737 Y102.778 E16.55684
G1 X111.465 Y103.427 E16.59194
G1 X111.12 Y104.041 E16.62708
G1 X110.709 Y104.612 E16.66218
G1 X110.235 Y105.133 E16.69732
G1 X109.705 Y105.597 E16.73246
G1 X109.126 Y105.997 E16.76757
G1 X108.505 Y106.329 E16.8027
G1 X108.071 Y106.502 E16.82601
G1 X107.777 Y106.909 E16.85106
G1 X107.303 Y107.429 E16.88617
G1 X106.862 Y107.824 E16.9157
G1 X106.302 Y108.251 E16.95084
G1 X105.697 Y108.611 E16.98596
G1 X105.055 Y108.9 E17.02109
G1 X104.385 Y109.115 E17.05619
G1 X103.694 Y109.252 E17.09134
G1 X102.834 Y109.312 E17.13435
G1 X98.168 Y109.313 E17.36713
G1 X97.465 Y109.273 E17.40226
G1 X96.772 Y109.154 E17.43734
G1 X96.096 Y108.957 E17.47247
G1 X95.447 Y108.684 E17.5076
G1 X94.833 Y108.34 E17.54271
G1 X94.117 Y107.808 E17.58721
G1 X93.986 Y107.695 E17.59584
G1 X93.48 Y107.205 E17.63099
G1 X93.182 Y106.843 E17.65438
G1 X92.798 Y106.766 E17.67392
G1 X92.119 Y106.579 E17.70905
G1 X91.466 Y106.316 E17.74418
G1 X90.847 Y105.98 E17.77931
G1 X90.27 Y105.577 E17.81443
G1 X89.743 Y105.111 E17.84952
G1 X89.271 Y104.588 E17.88467
G1 X88.863 Y104.015 E17.91976
G1 X88.521 Y103.399 E17.95492
G1 X88.252 Y102.748 E17.99006
G1 X88.058 Y102.072 E18.02514
G1 X87.942 Y101.377 E18.0603
G1 X87.906 Y100.706 E18.09382
G1 X87.906 Y98.294 E18.21416
G1 X87.946 Y97.591 E18.24929
G1 X88.065 Y96.897 E18.28442
G1 X88.263 Y96.222 E18.31951
G1 X88.535 Y95.573 E18.35462
G1 X88.88 Y94.959 E18.38976
G1 X89.291 Y94.388 E18.42485
G1 X89.765 Y93.867 E18.46
G0 F3600 X90.159 Y94.045
G1 F1800 X90.684 Y93.611 E18.49398
G1 X91.256 Y93.242 E18.52794
G1 X91.868 Y92.943 E18.56192
G1 X92.51 Y92.718 E18.59586
G1 X93.146 Y92.568 E18.62846
G1 X93.819 Y92.463 E18.66244
G1 X94.369 Y92.437 E18.68991
G1 X105.629 Y92.436 E19.25168
G1 X106.309 Y92.476 E19.28566
G1 X106.875 Y92.571 E19.31429
G1 X107.139 Y92.629 E19.32778
G1 X107.794 Y92.814 E19.36174
G1 X108.423 Y93.074 E19.39569
G1 X109.017 Y93.407 E19.42967
G1 X109.568 Y93.806 E19.46361
G1 X110.069 Y94.268 E19.49761
G1 X110.512 Y94.785 E19.53157
G1 X110.891 Y95.35 E19.56552
G1 X111.202 Y95.956 E19.5995
G1 X111.439 Y96.594 E19.63345
G1 X111.6 Y97.256 E19.66744
G1 X111.683 Y97.932 E19.70142
G1 X111.694 Y98.294 E19.71949
G1 X111.694 Y100.706 E19.83983
G1 X111.654 Y101.386 E19.87381
G1 X111.535 Y102.056 E19.90776
G1 X111.338 Y102.708 E19.94174
G1 X111.066 Y103.332 E19.9757
G1 X110.722 Y103.92 E20.00969
G1 X110.312 Y104.464 E20.04367
G1 X109.841 Y104.955 E20.07762
G1 X109.316 Y105.389 E20.1116
G1 X108.744 Y105.758 E20.14556
G1 X108.132 Y106.057 E20.17954
G1 X107.82 Y106.166 E20.19603
G1 X107.791 Y106.216 E20.19891
G1 X107.381 Y106.76 E20.2329
G1 X106.733 Y107.408 E20.27862
G1 X106.602 Y107.52 E20.28722
G1 X106.059 Y107.932 E20.32122
G1 X105.472 Y108.277 E20.35519
G1 X104.849 Y108.55 E20.38913
G1 X104.198 Y108.749 E20.42309
G1 X103.528 Y108.87 E20.45706
G1 X102.834 Y108.912 E20.49174
G1 X98.168 Y108.913 E20.72453
G1 X97.489 Y108.873 E20.75847
G1 X96.818 Y108.754 E20.79247
G1 X96.166 Y108.557 E20.82645
G1 X95.542 Y108.285 E20.86041
G1 X94.954 Y107.942 E20.89437
G1 X94.379 Y107.505 E20.9304
G1 X94.248 Y107.392 E20.93903
G1 X93.759 Y106.918 E20.97301
G1 X93.398 Y106.474 E21.00156
G1 X92.882 Y106.375 E21.02777
G1 X92.226 Y106.193 E21.06173
G1 X91.596 Y105.935 E21.0957
G1 X91 Y105.605 E21.12969
G1 X90.448 Y105.207 E21.16364
G1 X89.946 Y104.747 E21.19761
G1 X89.501 Y104.232 E21.23156
G1 X89.119 Y103.668 E21.26555
G1 X88.806 Y103.063 E21.29953
G1 X88.567 Y102.426 E21.33348
G1 X88.403 Y101.765 E21.36745
G1 X88.319 Y101.089 E21.40144
G1 X88.306 Y100.706 E21.42056
G1 X88.306 Y98.294 E21.54089
G1 X88.346 Y97.614 E21.57488
G1 X88.465 Y96.944 E21.60883
G1 X88.662 Y96.292 E21.64281
G1 X88.934 Y95.668 E21.67677
G1 X89.278 Y95.08 E21.71075
G1 X89.688 Y94.536 E21.74474
G1 X90.159 Y94.045 E21.77868
G0 F3600 X90.551 Y94.229
G1 F1800 X91.071 Y93.828 E21.81144
G1 X91.635 Y93.492 E21.8442
G1 X92.237 Y93.228 E21.87699
G1 X92.966 Y93.016 E21.91487
G1 X93.23 Y92.959 E21.92834
G1 X93.88 Y92.859 E21.96115
G1 X94.37 Y92.837 E21.98562
G1 X105.63 Y92.836 E22.54739
G1 X106.285 Y92.876 E22.58013
G1 X106.789 Y92.962 E22.60563
G1 X107.053 Y93.02 E22.61912
G1 X107.685 Y93.2 E22.6519
G1 X108.29 Y93.455 E22.68466
G1 X108.86 Y93.781 E22.71742
G1 X109.386 Y94.175 E22.75021
G1 X109.86 Y94.63 E22.78299
G1 X110.276 Y95.138 E22.81575
G1 X110.627 Y95.694 E22.84855
G1 X110.907 Y96.288 E22.88131
G1 X111.114 Y96.911 E22.91406
G1 X111.243 Y97.556 E22.94688
